!!!SOCIAL_FUNCTION:	social songs
!!!PDT:	1943
!!!OTL: No_54_Song_After_Receiving_a_Gift_(b).krn
!!!REG: British Columbia
**kern	**kern
*staff2	*staff1
=1-	=1-
*clefF4	*clefG2
*k[]	*k[]
*M2/4	*M2/4
4GG/	[2a/
4GG/	.
=2	=2
4GG/	4a/]
4GG/	8a/L
.	8g/J
=3	=3
4GG/	4g/
4GG/	8e/
.	8r
=4	=4
2r	[2g/
=5	=5
2r	4g/]
.	8a/L
.	8g/J
=6	=6
2r	4g/
.	8e/
.	8r
=7!|:	=7!|:
2r	4g/
.	8g/L
.	8g/J
=8	=8
2r	4e/
.	8d/
.	8r
=9	=9
2r	4e/
.	8d/L
.	8c/J
=10	=10
2r	4A/
.	8G/L
.	8G/J
=11	=11
2r	2A/
=12	=12
2r	4A/
.	8A/L
.	8G/J
=13	=13
2r	4E/
.	8E/
.	8r
=14	=14
2r	4A/
.	8A/L
.	8A/J
=15	=15
2r	4G/
.	4E/
=16	=16
2r	4G/
.	4r
=17	=17
2r	2a/
=18	=18
2r	4a/
.	8a/L
.	8a/J
=19	=19
2r	4g/
.	8e/L
.	8d/J
=20	=20
2r	2g/
=21	=21
2r	8g/
.	8r
.	4a/
=22	=22
2r	8a/L
.	8g/J
.	4e/
==:|!	==:|!
*-	*-
